X:1
T:O Child of God
T:O Child of God
T:Ira David Sankey
T:Frances Jane (Fanny) Crosby, 1886
T:Public Domain Courtesy of the Cyber Hymnal™
C:Ira David Sankey
Z:Public Domain
Z:Courtesy of the Cyber Hymnal™
%%score ( 1 2 ) ( 3 4 )
L:1/8
Q:1/4=110
M:4/4
K:F
V:1 treble 
V:2 treble 
V:3 bass 
V:4 bass 
V:1
 [Fc]2 | [Fc]3 [FB] [FA]2 [EG]2 | F3 [A,C] [A,C]2 [CB]2 | [CA]2 [DG]2 [B,D]2 [CE]2 | [CF]6 [Fc]2 | %5
w: 1.~O|child of God, wait|pa- tient- ly When|dark thy path may|be, And|
w: 2.~O|child of God, He|lov- eth thee, And|thou art all His|own; With|
w: 3.~O|child of God, how|peace- ful- ly He|calms thy fears to|rest, And|
 [Fc]3 [FB] [FA]2 [EG]2 | F2 (z G/B/) C2 [CB]2 | [CA]2 [DG]2 [B,D]2 [CE]2 | [CF]6 [FA]2 | %9
w: let thy faith lean|trust- * * ing- ly|* On Him who|cares for|
w: gen- tle hand He|lead- * * eth thee,|* Thou dost not|walk a-|
w: draws thee up- ward|ten- * * der- ly,|* Where dwell the|pure and|
 [FA]3 [EG] [EG]2 [Gc]2 | [Fc]3 [F=B] [FB]2 [Fe]2 | [Fe]2 [Fd]2 [FA]2 [F=B]2 | [Ec]6 [Ec]2 | %13
w: Thee; And though the|clouds hang drear- i-|ly Up- on the|brow of|
w: lone; And though thou|watch- est wear- i-|ly The long and|storm- y|
w: blest; And He Who|bend- eth si- lent-|ly A- bove the|gloom of|
 [Fc]3 [FB] [FA]2 [CG]2 | F3 (z G/A/) C2 [CB]2 | [CA]2 [DG]2 [B,D]2 [CE]2 | [CF]6 |] %17
w: night, Yet in the|morn- * * ing joy|will come, And fill|thy|
w: night, Yet in the|morn- * * ing joy|will come, And fill|thy|
w: night, Will take thee|home * * where end-|less joy Shall fill|thy|
V:2
 x2 | x8 | F3 x5 | x8 | x8 | x8 | F3 C2 x3 | x8 | x8 | x8 | x8 | x8 | x8 | x8 | C2 (C2 C2) x3 | %15
 x8 | x6 |] %17
V:3
 [F,A,]2 | [F,A,]3 [F,D] [F,C]2 [F,B,]2 | [F,A,]3 F, F,2 [E,G,]2 | F,2 [B,,G,]2 [C,G,]2 [C,B,]2 | %4
 [F,A,]6 [F,A,]2 | [F,A,]3 [F,D] [F,C]2 [B,C]2 | [A,C]2 [F,A,]2 [E,G,]2 [C,E,]2 | %7
 F,2 [B,,G,]2 [C,G,]2 [C,B,]2 | [F,A,]6 [F,C]2 | [C,C]3 [C,C] [C,C]2 [E,C]2 | %10
 [G,D]3 [G,D] [G,D]2 [G,=B,]2 | [G,=B,]2 [G,B,]2 [G,C]2 [G,D]2 | [C,C]6 [C,B,]2 | %13
 [F,A,]3 [F,D] [F,C]2 [B,C]2 | [A,C]2 [F,A,]2 [E,G,]2 [C,E,]2 x | F,2 [B,,G,]2 [C,G,]2 [C,B,]2 | %16
 [F,,A,]6 |] %17
V:4
 x2 | x8 | x3 F, F,2 x2 | F,2 x6 | x8 | x8 | x8 | x8 | x8 | x8 | x8 | x8 | x8 | x8 | x9 | x8 | %16
 x6 |] %17

